X: 3378
M: 2/4
L: 1/8
K: D
uA |\
|: g |\
faef | d>efd | faef | edBg |\
faef | d>efg | aAAf | edd :|


